src/assets/icons/linkedin.svg

<svg width="13" height="13" viewBox="0 0 13 13" fill="none" xmlns="http://www.w3.org/2000/svg">
<path d="M2.73438 13H0.191406V4.82422H2.73438V13ZM1.47656 3.70312C1.07552 3.70312 0.729167 3.55729 0.4375 3.26562C0.145833 2.97396 0 2.6276 0 2.22656C0 1.82552 0.145833 1.47917 0.4375 1.1875C0.729167 0.895833 1.07552 0.75 1.47656 0.75C1.8776 0.75 2.22396 0.895833 2.51562 1.1875C2.80729 1.47917 2.95312 1.82552 2.95312 2.22656C2.95312 2.6276 2.80729 2.97396 2.51562 3.26562C2.22396 3.55729 1.8776 3.70312 1.47656 3.70312ZM12.25 13H9.70703V9.00781C9.70703 8.35156 9.65234 7.8776 9.54297 7.58594C9.34245 7.09375 8.95052 6.84766 8.36719 6.84766C7.78385 6.84766 7.3737 7.06641 7.13672 7.50391C6.95443 7.83203 6.86328 8.3151 6.86328 8.95312V13H4.34766V4.82422H6.78125V5.94531H6.80859C6.99089 5.58073 7.28255 5.27995 7.68359 5.04297C8.12109 4.7513 8.63151 4.60547 9.21484 4.60547C10.3997 4.60547 11.2292 4.97917 11.7031 5.72656C12.0677 6.32812 12.25 7.25781 12.25 8.51562V13Z" fill="white"/>
</svg>

<svg xmlns="http://www.w3.org/2000/svg" width="13" height="13" fill="none"><path fill="#fff" d="M2.734 13H.191V4.824h2.543V13ZM1.477 3.703a1.42 1.42 0 0 1-1.04-.437A1.42 1.42 0 0 1 0 2.226c0-.4.146-.747.438-1.038A1.42 1.42 0 0 1 1.476.75c.4 0 .747.146 1.039.438.291.291.437.638.437 1.039 0 .4-.146.747-.437 1.039a1.42 1.42 0 0 1-1.04.437ZM12.25 13H9.707V9.008c0-.656-.055-1.13-.164-1.422-.2-.492-.592-.738-1.176-.738-.583 0-.993.218-1.23.656-.183.328-.274.811-.274 1.45V13H4.348V4.824H6.78v1.121h.028c.182-.364.474-.665.875-.902.437-.292.948-.438 1.53-.438 1.186 0 2.015.374 2.49 1.122.364.601.546 1.53.546 2.789V13Z"/></svg>
